logos/solr.svg

<?xml version="1.0" encoding="UTF-8" standalone="no"?>
<svg width="256px" height="130px" viewBox="0 0 256 130" version="1.1" xmlns="http://www.w3.org/2000/svg" xmlns:xlink="http://www.w3.org/1999/xlink" preserveAspectRatio="xMidYMid">
	<g>
		<path d="M51.5525769,89.6597173 C48.6011285,88.0889677 45.265803,86.9826466 41.6409964,86.3709604 C38.0803791,85.7718605 34.4580897,85.4685346 30.8748173,85.4685346 C27.9460239,85.4685346 24.983248,85.2155533 22.0670407,84.7171424 C19.2276089,84.2338349 16.6562617,83.3427366 14.4197057,82.0690198 C12.2435631,80.8305442 10.4437459,79.0974336 9.06808146,76.9149979 C7.71129621,74.7678035 7.02409329,71.9208199 7.02409329,68.486064 C7.08954119,65.4528057 7.79436469,62.8575448 9.12094322,60.7720224 C10.4651423,58.6525174 12.2221667,56.9307343 14.340413,55.6532417 C16.5127798,54.3430251 19.0199377,53.3801859 21.792663,52.7911548 C26.5137219,51.7892985 31.5003482,51.6017651 36.5801119,52.3103645 C38.562428,52.5897767 40.5233477,53.0844117 42.4074919,53.7804249 C44.2576537,54.4663692 45.9970574,55.4065535 47.5753586,56.5707709 C49.1310048,57.7224021 50.5054106,59.1672903 51.6608177,60.8639012 L52.307745,61.8141543 L57.0753726,59.8079245 L56.0634474,58.3793983 C54.765817,56.5468572 53.3284805,54.896815 51.7904549,53.4720647 C50.220964,52.0234006 48.3770953,50.7912181 46.3079349,49.8145341 C44.2652053,48.8516948 41.9279602,48.1103715 39.3578717,47.610702 C36.814214,47.1173256 33.8489208,46.8681201 30.543802,46.8681201 C27.3733548,46.8681201 24.0997014,47.2306008 20.8147204,47.9480104 C17.4806535,48.6780062 14.3882403,49.8837578 11.6255839,51.5338 C8.80377264,53.220342 6.47785507,55.4669669 4.71202046,58.2120027 C2.91849636,61.0048659 2.00726026,64.4509494 2.00726026,68.4558572 C2.00726026,72.659626 2.85178985,76.2378639 4.51567677,79.0898819 C6.16949479,81.9242793 8.38717161,84.2212487 11.1070352,85.9153424 C13.7702611,87.5767121 16.8777776,88.7711362 20.3427403,89.4646322 C23.7284104,90.1417662 27.2714071,90.4853677 30.8748173,90.4853677 C33.7394214,90.4853677 36.7726797,90.7018492 39.8915237,91.1335536 C42.9260407,91.5526718 45.7503691,92.39846 48.2852165,93.6470045 C50.754616,94.8666009 52.812449,96.5619532 54.3983019,98.6877512 C55.9325516,100.745584 56.7116333,103.524603 56.7116333,106.946772 C56.7116333,110.020306 55.9614997,112.640739 54.4851462,114.741365 C52.9597067,116.911215 50.9786492,118.702222 48.5960941,120.064041 C46.1619357,121.454809 43.406831,122.47932 40.4025208,123.107369 C37.3503833,123.746744 34.3297111,124.070208 31.42609,124.070208 C26.5514803,124.070208 21.7347668,123.138834 17.1106211,121.301258 C12.5066133,119.47501 8.4236714,116.729974 4.97758789,113.142926 L4.05250704,112.180087 L0.250235944,115.475137 L1.31754011,116.542441 C4.71957215,119.94699 8.94473735,122.911025 13.8722088,125.355252 C18.8600938,127.830945 24.7667665,129.085782 31.42609,129.085782 C34.5927613,129.085782 37.9532591,128.723302 41.4169632,128.009668 C44.9284946,127.283448 48.2235445,126.043714 51.2089755,124.320672 C54.2422338,122.571199 56.7657537,120.281781 58.7128286,117.516608 C60.7127653,114.675917 61.7272077,111.121593 61.7272077,106.946772 C61.7272077,102.716573 60.7769546,99.134559 58.9016206,96.3001616 C57.0502003,93.5060398 54.5782836,91.2707424 51.5525769,89.6597173" fill="#201F26"></path>
		<path d="M96.3959657,124.621229 C92.9574339,124.621229 89.8134176,123.911371 87.0495025,122.511793 C84.2490877,121.095853 81.777171,119.167657 79.7004589,116.77755 C77.6124192,114.377374 75.9535668,111.570666 74.7704702,108.434202 C73.5785633,105.283892 72.9026879,101.981291 72.765499,98.6749134 C72.765499,95.6177414 73.331875,92.4938629 74.4470065,89.3888637 C75.5608794,86.2939333 77.183232,83.4708634 79.2712717,80.9989467 C81.3530183,78.5358403 83.886607,76.4956279 86.8028143,74.9324301 C89.6699356,73.3969217 92.8970204,72.61784 96.3959657,72.61784 C99.6859811,72.61784 102.793498,73.3465772 105.631671,74.7813965 C108.508861,76.2376122 111.039933,78.188463 113.155662,80.5798284 C115.276425,82.9812628 116.970519,85.7892293 118.192633,88.9269525 C119.409712,92.0608999 120.026432,95.3408465 120.026432,98.6749134 C120.026432,101.728309 119.460056,104.853447 118.346183,107.959704 C117.229793,111.060928 115.607441,113.882739 113.52066,116.352139 C111.442689,118.810211 108.912876,120.830285 106.000445,122.355725 C103.132065,123.859768 99.901204,124.621229 96.3959657,124.621229 M117.26,77.5780355 C114.765428,74.6630868 111.733429,72.2515835 108.245811,70.4114907 C104.710366,68.5462257 100.723079,67.6022656 96.3959657,67.6022656 C92.4539885,67.6022656 88.6882172,68.4467952 85.2031167,70.1106821 C81.7431884,71.7645002 78.6834992,74.0451076 76.1096348,76.8870567 C73.5458393,79.7176783 71.4905236,83.0517452 70.0003253,86.7961201 C68.5076098,90.5455294 67.7499246,94.5428856 67.7499246,98.6749134 C67.7499246,102.580391 68.448455,106.4028 69.8266367,110.036417 C71.2023011,113.667516 73.1607036,116.962566 75.6477237,119.833463 C78.1460713,122.716947 81.1843641,125.07433 84.6782749,126.838906 C88.1986166,128.618585 92.1330421,129.560028 96.3707934,129.636803 L96.3972243,129.636803 L96.4236552,129.636803 C100.433597,129.560028 104.230834,128.657602 107.709642,126.958474 C111.163277,125.271932 114.21919,122.973704 116.793055,120.131755 C119.35685,117.299875 121.394545,114.002307 122.846985,110.330932 C124.303201,106.650747 125.042007,102.728907 125.042007,98.6749134 C125.042007,95.0035381 124.363614,91.2616804 123.028225,87.5550639 C121.690319,83.8484475 119.749537,80.4917255 117.26,77.5780355" fill="#201F26"></path>
		<path d="M151.011481,123.230083 C150.16821,123.440272 149.425628,123.600116 148.80639,123.703322 C148.154428,123.811563 147.447087,123.921062 146.685626,124.029303 C145.984579,124.128733 145.291083,124.180336 144.624018,124.180336 C142.941251,124.180336 141.702776,123.622771 140.835591,122.474915 C139.877786,121.211267 139.412099,119.95643 139.412099,118.637403 L139.412099,45.2136728 L134.396525,45.2136728 L134.396525,118.637403 C134.396525,121.392508 135.266227,123.830442 136.982976,125.879465 C138.761396,128.00778 141.294985,129.085153 144.51326,129.085153 C145.522668,129.085153 146.524524,129.025998 147.492398,128.910206 C148.426289,128.798189 149.265784,128.686172 150.017176,128.574156 C150.78493,128.458363 151.673511,128.284675 152.660264,128.058124 L154.360651,127.665437 L152.127871,122.950671 L151.011481,123.230083 Z" fill="#201F26"></path>
		<path d="M172.652961,72.6554726 C170.043855,74.4892723 167.739334,76.8177071 165.767087,79.6055358 L165.767087,68.4844278 L160.751512,68.4844278 L160.751512,128.534132 L165.767087,128.534132 L165.767087,91.1482793 C166.461841,88.6990177 167.418387,86.4020482 168.612811,84.319043 C169.817305,82.2209345 171.316313,80.37329 173.065786,78.8289713 C174.815258,77.2859113 176.851695,76.033591 179.120975,75.1059929 C181.383962,74.1796534 183.937688,73.6384497 186.711672,73.4987436 L188.045802,73.4320371 L188.045802,68.4844278 L186.64119,68.4844278 C181.295859,68.4844278 176.589903,69.8877817 172.652961,72.6554726" fill="#201F26"></path>
		<path d="M244.310353,13.7926409 L202.77611,58.6961913 L254.974584,34.6138824 C253.430265,26.6468596 249.649391,19.4828321 244.310353,13.7926409 Z M213.493581,0.435983684 C207.739201,0.435983684 202.256681,1.59013218 197.257468,3.67313736 L191.684328,50.637038 L219.533667,0.872722535 C217.560161,0.589534519 215.545121,0.435983684 213.493581,0.435983684 Z M255.388416,37.2010881 L205.927427,64.8805141 L252.332503,59.3740805 C254.532559,54.257817 255.755931,48.6217462 255.755931,42.6987115 C255.755931,40.8334464 255.622518,39.0021639 255.388416,37.2010881 Z M237.15287,77.7221467 C242.679441,73.9815477 247.268346,68.9647146 250.509275,63.0983176 L207.012855,71.7361814 L237.15287,77.7221467 Z M222.080345,1.31072 L197.868399,53.7886059 L242.782018,12.2468119 C237.149723,6.82848117 230.025972,2.95069327 222.080345,1.31072 Z M217.026005,84.802854 C221.70553,84.4152011 226.168573,83.2711215 230.291791,81.4826318 L205.927552,78.5915969 L217.026005,84.802854 Z M174.96969,25.3246862 C173.069184,29.5322308 171.837001,34.1022561 171.409073,38.9076421 L177.972742,50.637919 L174.96969,25.3246862 Z M193.595155,5.41065317 C187.631845,8.59997954 182.526909,13.1762979 178.703241,18.710421 L184.828912,49.5514839 L193.595155,5.41065317 Z" fill="#C7402B"></path>
	</g>
</svg>

<svg width="256" height="130" xmlns="http://www.w3.org/2000/svg" preserveAspectRatio="xMidYMid">
	<path d="M51.553 89.66c-2.952-1.571-6.287-2.677-9.912-3.289-3.56-.6-7.183-.902-10.766-.902a52.43 52.43 0 0 1-8.808-.752c-2.84-.483-5.41-1.374-7.647-2.648-2.176-1.238-3.976-2.972-5.352-5.154-1.357-2.147-2.044-4.994-2.044-8.429.066-3.033.77-5.628 2.097-7.714a15.798 15.798 0 0 1 5.22-5.119c2.172-1.31 4.679-2.273 7.452-2.862 4.72-1.002 9.707-1.19 14.787-.48 1.982.279 3.943.773 5.827 1.47 1.85.685 3.59 1.626 5.168 2.79 1.556 1.151 2.93 2.596 4.086 4.293l.647.95 4.767-2.006-1.012-1.429a31.502 31.502 0 0 0-4.273-4.907c-1.569-1.449-3.413-2.68-5.482-3.657-2.043-.963-4.38-1.705-6.95-2.204-2.544-.494-5.51-.743-8.814-.743-3.17 0-6.444.363-9.73 1.08-3.333.73-6.426 1.936-9.188 3.586a20.882 20.882 0 0 0-6.914 6.678c-1.794 2.793-2.705 6.239-2.705 10.244 0 4.204.845 7.782 2.509 10.634 1.653 2.834 3.871 5.131 6.591 6.825 2.663 1.662 5.77 2.856 9.236 3.55a53.827 53.827 0 0 0 10.532 1.02c2.864 0 5.898.217 9.017.649 3.034.419 5.858 1.264 8.393 2.513 2.47 1.22 4.527 2.915 6.113 5.04 1.535 2.059 2.314 4.838 2.314 8.26 0 3.073-.75 5.694-2.227 7.794-1.525 2.17-3.506 3.961-5.889 5.323-2.434 1.39-5.19 2.415-8.193 3.043-3.053.64-6.073.963-8.977.963-4.875 0-9.691-.931-14.315-2.769a34.209 34.209 0 0 1-12.133-8.158l-.925-.963-3.803 3.295 1.068 1.067c3.402 3.405 7.627 6.369 12.554 8.813 4.988 2.476 10.895 3.73 17.554 3.73 3.167 0 6.527-.362 9.991-1.075 3.511-.727 6.807-1.966 9.792-3.69 3.033-1.749 5.557-4.038 7.504-6.803 2-2.841 3.014-6.395 3.014-10.57 0-4.23-.95-7.812-2.825-10.647-1.852-2.794-4.324-5.03-7.35-6.64" fill="#201F26"/>
	<path d="M96.396 124.621c-3.439 0-6.583-.71-9.346-2.11a24.1 24.1 0 0 1-7.35-5.733c-2.088-2.4-3.746-5.207-4.93-8.344a31.28 31.28 0 0 1-2.005-9.76c0-3.056.567-6.18 1.682-9.285a27.246 27.246 0 0 1 4.824-8.39c2.082-2.463 4.616-4.503 7.532-6.067 2.867-1.535 6.094-2.314 9.593-2.314 3.29 0 6.397.729 9.236 2.163a25.176 25.176 0 0 1 7.524 5.799c2.12 2.401 3.815 5.21 5.037 8.347a26.827 26.827 0 0 1 1.833 9.748c0 3.053-.566 6.178-1.68 9.285a27.236 27.236 0 0 1-4.825 8.392 24.936 24.936 0 0 1-7.52 6.004c-2.869 1.504-6.1 2.265-9.605 2.265m20.864-47.043c-2.495-2.915-5.527-5.326-9.014-7.167-3.536-1.865-7.523-2.809-11.85-2.809-3.942 0-7.708.845-11.193 2.509a29.202 29.202 0 0 0-9.093 6.776c-2.564 2.83-4.62 6.165-6.11 9.91-1.492 3.749-2.25 7.746-2.25 11.878 0 3.905.698 7.728 2.077 11.361a32.466 32.466 0 0 0 5.82 9.797c2.5 2.884 5.537 5.241 9.031 7.006 3.52 1.78 7.455 2.721 11.693 2.798h.053c4.01-.077 7.807-.98 11.286-2.679a29.908 29.908 0 0 0 9.083-6.826c2.564-2.832 4.602-6.13 6.054-9.801 1.456-3.68 2.195-7.602 2.195-11.656 0-3.671-.678-7.413-2.014-11.12-1.338-3.707-3.278-7.063-5.768-9.977" fill="#201F26"/>
	<path d="M151.011 123.23c-.843.21-1.585.37-2.205.473a92.12 92.12 0 0 1-2.12.326c-.701.1-1.395.151-2.062.151-1.683 0-2.921-.557-3.788-1.705-.958-1.264-1.424-2.519-1.424-3.838V45.214h-5.015v73.423c0 2.756.87 5.193 2.586 7.242 1.778 2.129 4.312 3.206 7.53 3.206 1.01 0 2.012-.059 2.98-.175a89.563 89.563 0 0 0 2.524-.336c.768-.116 1.657-.29 2.643-.516l1.7-.393-2.232-4.714-1.117.28Z" fill="#201F26"/>
	<path d="M172.653 72.655c-2.61 1.834-4.914 4.163-6.886 6.95v-11.12h-5.015v60.05h5.015V91.147c.695-2.449 1.651-4.746 2.846-6.829a21.716 21.716 0 0 1 4.453-5.49c1.75-1.543 3.786-2.795 6.055-3.723 2.263-.926 4.817-1.468 7.59-1.607l1.335-.067v-4.948h-1.405c-5.345 0-10.051 1.404-13.988 4.171" fill="#201F26"/>
	<path d="m244.31 13.793-41.534 44.903 52.199-24.082a42.138 42.138 0 0 0-10.665-20.821ZM213.494.436a42.111 42.111 0 0 0-16.237 3.237l-5.573 46.964L219.534.873a42.486 42.486 0 0 0-6.04-.437Zm41.894 36.765-49.46 27.68 46.405-5.507a42.109 42.109 0 0 0 3.423-16.675c0-1.866-.133-3.697-.368-5.498Zm-18.235 40.521a42.475 42.475 0 0 0 13.356-14.624l-43.496 8.638 30.14 5.986ZM222.08 1.311l-24.212 52.478 44.914-41.542C237.15 6.828 230.026 2.95 222.08 1.31Zm-5.054 83.492a41.999 41.999 0 0 0 13.266-3.32l-24.364-2.891 11.098 6.21ZM174.97 25.325a41.993 41.993 0 0 0-3.56 13.583l6.563 11.73-3.003-25.313ZM193.595 5.41a42.46 42.46 0 0 0-14.892 13.3l6.126 30.84 8.766-44.14Z" fill="#C7402B"/>
</svg>
